Numix-Square/48x48/apps/vmware-player.svg

<svg xmlns="http://www.w3.org/2000/svg" xmlns:xlink="http://www.w3.org/1999/xlink" width="48" viewBox="0 0 13.546667 13.546667" height="48">
 <defs>
  <linearGradient id="0">
   <stop stop-color="#fdbf1a"/>
   <stop offset="1" stop-color="#ffeb3a"/>
  </linearGradient>
  <linearGradient id="1">
   <stop stop-color="#dedede"/>
   <stop offset="1" stop-color="#f9f9f9"/>
  </linearGradient>
  <linearGradient xlink:href="#0" id="2" gradientUnits="userSpaceOnUse" x1="24.737" y1="38.11" x2="24.701" y2="9.03"/>
  <linearGradient xlink:href="#1" id="3" gradientUnits="userSpaceOnUse" y1="1050.36" x2="0" y2="1006.36" gradientTransform="matrix(0.28222223,0,0,0.28222223,0,-283.45334)"/>
 </defs>
 <g transform="matrix(0.28222223,0,0,0.28222223,0,-283.45334)">
  <path d="M 5.1875,1 C 2.8707723,1 1,2.8707723 1,5.1875 l 0,37.625 C 1,45.129228 2.8707723,47 5.1875,47 l 37.625,0 C 45.129228,47 47,45.129228 47,42.8125 L 47,5.1875 C 47,2.8707723 45.129228,1 42.8125,1 L 5.1875,1 z m 0.1875,0.25 37.25,0 c 2.291546,0 4.125,1.8334541 4.125,4.125 l 0,37.25 c 0,2.291546 -1.833454,4.125 -4.125,4.125 l -37.25,0 C 3.0834541,46.75 1.25,44.916546 1.25,42.625 l 0,-37.25 C 1.25,3.0834541 3.0834541,1.25 5.375,1.25 z" transform="translate(0,1004.3622)" opacity="0.05"/>
  <path d="M 5.375,1.25 C 3.0834541,1.25 1.25,3.0834541 1.25,5.375 l 0,37.25 c 0,2.291546 1.8334541,4.125 4.125,4.125 l 37.25,0 c 2.291546,0 4.125,-1.833454 4.125,-4.125 l 0,-37.25 C 46.75,3.0834541 44.916546,1.25 42.625,1.25 l -37.25,0 z m 0.21875,0.25 36.8125,0 C 44.672614,1.5 46.5,3.3273859 46.5,5.59375 l 0,36.8125 C 46.5,44.672614 44.672614,46.5 42.40625,46.5 l -36.8125,0 C 3.3273859,46.5 1.5,44.672614 1.5,42.40625 l 0,-36.8125 C 1.5,3.3273859 3.3273859,1.5 5.59375,1.5 z" transform="translate(0,1004.3622)" opacity="0.1"/>
  <path d="M 5.59375,1.5 C 3.3273859,1.5 1.5,3.3273859 1.5,5.59375 l 0,36.8125 C 1.5,44.672614 3.3273859,46.5 5.59375,46.5 l 36.8125,0 C 44.672614,46.5 46.5,44.672614 46.5,42.40625 l 0,-36.8125 C 46.5,3.3273859 44.672614,1.5 42.40625,1.5 l -36.8125,0 z m 0.09375,0.125 36.625,0 c 2.253773,0 4.0625,1.8087269 4.0625,4.0625 l 0,36.625 c 0,2.253773 -1.808727,4.0625 -4.0625,4.0625 l -36.625,0 c -2.2537731,0 -4.0625,-1.808727 -4.0625,-4.0625 l 0,-36.625 C 1.625,3.4337269 3.4337269,1.625 5.6875,1.625 z" transform="translate(0,1004.3622)" opacity="0.2"/>
  <path d="M 5.6875,1.625 C 3.4337269,1.625 1.625,3.4337269 1.625,5.6875 l 0,36.625 c 0,2.253773 1.8087269,4.0625 4.0625,4.0625 l 36.625,0 c 2.253773,0 4.0625,-1.808727 4.0625,-4.0625 l 0,-36.625 c 0,-2.2537731 -1.808727,-4.0625 -4.0625,-4.0625 l -36.625,0 z m 0.09375,0.125 36.4375,0 c 2.241182,0 4.03125,1.7900679 4.03125,4.03125 l 0,36.4375 c 0,2.241182 -1.790068,4.03125 -4.03125,4.03125 l -36.4375,0 C 3.5400679,46.25 1.75,44.459932 1.75,42.21875 l 0,-36.4375 C 1.75,3.5400679 3.5400679,1.75 5.78125,1.75 z" transform="translate(0,1004.3622)" opacity="0.3"/>
  <path d="M 5.78125,1.75 C 3.5400679,1.75 1.75,3.5400679 1.75,5.78125 l 0,36.4375 c 0,2.241182 1.7900679,4.03125 4.03125,4.03125 l 36.4375,0 c 2.241182,0 4.03125,-1.790068 4.03125,-4.03125 l 0,-36.4375 C 46.25,3.5400679 44.459932,1.75 42.21875,1.75 l -36.4375,0 z m 0.125,0.125 36.1875,0 c 2.228591,0 4.03125,1.802659 4.03125,4.03125 l 0,36.1875 c 0,2.228591 -1.802659,4.03125 -4.03125,4.03125 l -36.1875,0 C 3.677659,46.125 1.875,44.322341 1.875,42.09375 l 0,-36.1875 C 1.875,3.677659 3.677659,1.875 5.90625,1.875 z" transform="translate(0,1004.3622)" opacity="0.4"/>
  <rect rx="4.02" y="1006.24" x="1.875" height="44.25" width="44.25" opacity="0.5"/>
 </g>
 <rect rx="1.129" y="0.564" x="0.564" height="12.418" width="12.418" fill="url(#3)"/>
 <path d="M 14 12 C 13 12 12 13 12 14 L 12 21 C 12 22 13 23 14 23 C 15 23 16 22 16 21 L 16 18 L 18 20 L 18 23 L 21 23 L 21 22 C 20.96893 21.336158 21.30226 21.002825 22 21 L 23 21 L 23 18 L 20 18 L 18 16 L 21 16 C 22 16 23 15 23 14 C 23 13 22 12 21 12 L 14 12 z M 27 12 C 26 12 25 13 25 14 C 25 15 26 16 27 16 L 30 16 L 28 18 L 25 18 L 25 21 L 26 21 C 26.663842 20.968925 26.997175 21.302262 27 22 L 27 23 L 30 23 L 30 20 L 32 18 L 32 21 C 32 22 33 23 34 23 C 35 23 36 22 36 21 L 36 14 C 36 13 35 12 34 12 L 27 12 z M 18 25 L 18 28 C 17.999999 28.999999 19 29.999999 20 30 L 23 30 L 23 27 L 22 27 C 21.336158 27.031075 21.002825 26.697738 21 26 L 21 25 L 18 25 z M 27 25 L 27 26 C 27.031075 26.663842 26.697738 26.997175 26 27 L 25 27 L 25 30 L 28 30 L 30 32 L 27 32 C 26 32 25 33 25 34 C 25 35 26 36 27 36 L 34 36 C 35 36 36 35 36 34 L 36 27 C 36 26 35 25 34 25 C 33 25 32 26 32 27 L 32 30 L 30 28 L 30 25 L 27 25 z " transform="scale(0.28222223,0.28222223)" fill="url(#2)"/>
</svg>

<svg viewBox="0 0 48 48"><defs><linearGradient id="linearGradient3764" x1="1" x2="47" gradientUnits="userSpaceOnUse" gradientTransform="translate(-47.997785,0.00221467)"><stop stop-color="#d5d5d5" stop-opacity="1"/><stop offset="1" stop-color="#dfdfdf" stop-opacity="1"/></linearGradient><clipPath id="clipPath-256405578"><g transform="translate(0,-1004.3622)"><rect rx="4" y="1005.36" x="1" height="46" width="46" fill="#1890d0"/></g></clipPath><clipPath id="clipPath-274652868"><g transform="translate(0,-1004.3622)"><rect rx="4" y="1005.36" x="1" height="46" width="46" fill="#1890d0"/></g></clipPath><linearGradient id="linear0" gradientUnits="userSpaceOnUse" x1="24.737" y1="38.11" x2="24.701" y2="9.03"><stop stop-color="#fbbf19" stop-opacity="1"/><stop offset="1" stop-color="#ffeb37" stop-opacity="1"/></linearGradient><linearGradient id="linear0" gradientUnits="userSpaceOnUse" x1="24.737" y1="38.11" x2="24.701" y2="9.03"><stop stop-color="#fbbf19" stop-opacity="1"/><stop offset="1" stop-color="#ffeb37" stop-opacity="1"/></linearGradient></defs><g><g transform="translate(0,-1004.3622)"><path d="m 5 1006.36 c -2.216 0 -4 1.784 -4 4 l 0 37.25 c 0 2.216 1.784 4 4 4 l 38 0 c 2.216 0 4 -1.784 4 -4 l 0 -37.25 c 0 -2.216 -1.784 -4 -4 -4 l -38 0 z m -4 41.5 0 0.5 c 0 2.216 1.784 4 4 4 l 38 0 c 2.216 0 4 -1.784 4 -4 l 0 -0.5 c 0 2.216 -1.784 4 -4 4 l -38 0 c -2.216 0 -4 -1.784 -4 -4 z" opacity="0.02"/><path d="m 1 1047.61 0 0.25 c 0 2.216 1.784 4 4 4 l 38 0 c 2.216 0 4 -1.784 4 -4 l 0 -0.25 c 0 2.216 -1.784 4 -4 4 l -38 0 c -2.216 0 -4 -1.784 -4 -4 z" opacity="0.05"/><rect width="46" height="46" x="1" y="1005.61" rx="4" opacity="0.1"/></g></g><g><rect width="46" height="46" x="-46.998" y="1" rx="4" transform="matrix(0,-1,1,0,0,0)" fill="url(#linearGradient3764)" fill-opacity="1"/></g><g/><g><g clip-path="url(#clipPath-256405578)"><g opacity="0.1"><!-- color: #dfdfdf --><g><path d="m 14 12 c -1 0 -2 1 -2 2 l 0 7 c 0 1 1 2 2 2 c 1 0 2 -1 2 -2 l 0 -3 l 2 2 l 0 3 l 3 0 l 0 -1 c -0.031 -0.664 0.301 -0.996 1 -1 l 1 0 l 0 -3 l -3 0 l -2 -2 l 3 0 c 1 0 2 -1 2 -2 c 0 -1 -1 -2 -2 -2 m 6 0 c -1 0 -2 1 -2 2 c 0 1 1 2 2 2 l 3 0 l -2 2 l -3 0 l 0 3 l 1 0 c 0.664 -0.031 0.996 0.301 1 1 l 0 1 l 3 0 l 0 -3 l 2 -2 l 0 3 c 0 1 1 2 2 2 c 1 0 2 -1 2 -2 l 0 -7 c 0 -1 -1 -2 -2 -2 m -16 13 l 0 3 c 0 1 1 2 2 2 l 3 0 l 0 -3 l -1 0 c -0.664 0.031 -0.996 -0.301 -1 -1 l 0 -1 m 6 0 l 0 1 c 0.031 0.664 -0.301 0.996 -1 1 l -1 0 l 0 3 l 3 0 l 2 2 l -3 0 c -1 0 -2 1 -2 2 c 0 1 1 2 2 2 l 7 0 c 1 0 2 -1 2 -2 l 0 -7 c 0 -1 -1 -2 -2 -2 c -1 0 -2 1 -2 2 l 0 3 l -2 -2 l 0 -3 m -3 0" stroke="none" fill-rule="nonzero" fill="#000"/></g></g></g></g><g><g clip-path="url(#clipPath-274652868)"><g transform="translate(0,-1)"><!-- color: #dfdfdf --><g><path d="m 14 12 c -1 0 -2 1 -2 2 l 0 7 c 0 1 1 2 2 2 c 1 0 2 -1 2 -2 l 0 -3 l 2 2 l 0 3 l 3 0 l 0 -1 c -0.031 -0.664 0.301 -0.996 1 -1 l 1 0 l 0 -3 l -3 0 l -2 -2 l 3 0 c 1 0 2 -1 2 -2 c 0 -1 -1 -2 -2 -2 m 6 0 c -1 0 -2 1 -2 2 c 0 1 1 2 2 2 l 3 0 l -2 2 l -3 0 l 0 3 l 1 0 c 0.664 -0.031 0.996 0.301 1 1 l 0 1 l 3 0 l 0 -3 l 2 -2 l 0 3 c 0 1 1 2 2 2 c 1 0 2 -1 2 -2 l 0 -7 c 0 -1 -1 -2 -2 -2 m -16 13 l 0 3 c 0 1 1 2 2 2 l 3 0 l 0 -3 l -1 0 c -0.664 0.031 -0.996 -0.301 -1 -1 l 0 -1 m 6 0 l 0 1 c 0.031 0.664 -0.301 0.996 -1 1 l -1 0 l 0 3 l 3 0 l 2 2 l -3 0 c -1 0 -2 1 -2 2 c 0 1 1 2 2 2 l 7 0 c 1 0 2 -1 2 -2 l 0 -7 c 0 -1 -1 -2 -2 -2 c -1 0 -2 1 -2 2 l 0 3 l -2 -2 l 0 -3 m -3 0" fill="url(#linear0)" stroke="none" fill-rule="nonzero"/></g></g></g></g><g><g transform="translate(0,-1004.3622)"><path d="m 1 1043.36 0 4 c 0 2.216 1.784 4 4 4 l 38 0 c 2.216 0 4 -1.784 4 -4 l 0 -4 c 0 2.216 -1.784 4 -4 4 l -38 0 c -2.216 0 -4 -1.784 -4 -4 z" opacity="0.1"/></g></g></svg>
